X:1
T:Title
%%score { 1 | 2 } 3
L:1/8
Q:1/4=103
M:9/8
K:Bb
V:1 treble nm="Drawbar Organ, Soprano"
V:2 treble 
V:3 bass nm="Choir Pad, Singing for Jesus (Crosby)"
V:1
 dcB F3 D3 | EFG F3 B3 | Acc c3 A2 A | cBG F6 | dcB F3 D2 D | EFG F3 B3 | ddd d3 B2 d | cBc B6 | %8
w: By~Philip~Phillips * * * *||||||||
 Bdf f3 d2 B | cBG G3 F3 | FBc d3 c2 B | dcB c6 | dcB F3 D2 D | EFG F3 B3 | Bdd d3 B2 B | %15
w: |||||||
 cBc d3- d3/2 z/ B | cBA B6- | B3 z3 z3 |] %18
w: |||
V:2
 FED D3 B,3 | CDE D3 D3 | FAA A3 F2 F | AG=E z3 z3 | FED D3 B,2 B, | CDE D3 D3 | FFF F3 F2 F | %7
 EDE D6 | DFD D3 F2 F | GGE E3 D3 | DDE F3 E2 D | FFG A6 | FED D3 B,2 B, | CDE D3 D3 | %14
 DFF F3 F2 F | EDE F3- F3/2 z/ F | EDC D6- | D3 z3 z3 |] %18
V:3
 B,,B,,B,, B,,3 B,,3 | F,F,F, B,3 B,3 | F,F,F, F,3 F,2 F, | C,C,C, F,6 | B,B,B, B,,3 B,,2 B,, | %5
 B,,B,,B,, B,,3 B,,3 | B,B,B, B,3 D,2 B,, | F,F,F, B,,6 | B,B,B, B,3 B,2 D, | E,E,E, E,3 B,,3 | %10
 B,,B,,B,, B,,3 F,2 F, | B,A,G, F,6 | B,B,B, B,,3 B,,2 B,, | F,F,F, B,3 B,3 | B,B,B, B,3 B,2 D, | %15
 F,F,F, B,3- B,3/2 z/ D, | F,F,F, B,,6- | B,,3 z3 z3 |] %18

